X: 17
T:San Pelaio (2ª voz)
M:2/4
L:1/16
Q:200
C:Trad.
R:Pasodoble
K:D
A4 F2D2 | A4 F2D2 | A4 {D}A4- | A2F2E2D2 | A4 F2D2 | A4 F2A2 | G4 {D}G4-
| G8 | B4 A2G2 | F4 E2D2 | 
A4 {D}A4- | A2F2E2D2 | G4 {D}G4- | G2E2C2E2 |1 {C}D8- | D8 
:|2|: {C
}D8- | D2{A} D2E2F2 | G2AG F4- | F2D2E2F2 |
G2AG F4- | F2D2E2F2 | G6 A2 | G2F2E2D2 |F2GF E4- | E2C2D2E2 | F2GF E4-
| E2C2D2E2 |F2GF E4- | E2C2D2E2 |
A6 B2 |A2G2F2E2 :| {C}D8- | D8 ||

